images/Gift.svg

<svg width="72" height="72" viewBox="0 0 72 72" fill="none" xmlns="http://www.w3.org/2000/svg">
<path id="Combined Shape" fill-rule="evenodd" clip-rule="evenodd" d="M36 23.9808C36.0994 23.9935 36.2001 24 36.3016 24C36.8763 24 37.4424 23.9931 38 23.9796V34.5V39H65.9556H66.7111C69.6124 39 72 36.63 72 33.75V26.25C72 23.37 69.6124 21 66.7111 21H54.5796C63.0488 17.7084 67 12.3266 67 8.06725C67 4.34664 64.0499 0.00296699 55.7306 0C44.9929 0 38.9117 7.61477 35.9997 14.5904C33.0874 7.6144 27.007 0 16.2725 0C7.95319 0 5 4.34421 5 8.06528C5 12.3253 8.95154 17.708 17.4214 21H5.28889C2.38756 21 0 23.37 0 26.25V33.75C0 36.63 2.38756 39 5.28889 39H6.04444H34V34.5V23.9796C34.5576 23.9931 35.1237 24 35.6984 24C35.7999 24 35.9006 23.9935 36 23.9808ZM39.1749 19.4842C40.5594 14.5561 44.7344 4.45346 55.7306 4.45346C58.9539 4.45346 62.3952 5.39993 62.3952 8.06429C62.3952 9.85338 60.8388 12.6572 56.4704 15.1643C53.3208 16.9712 47.8503 19.0926 39.1749 19.4842ZM34 44H6V66.8421C6 69.6716 8.39135 72 11.2973 72H34V44ZM66 66.8421V44H38V72H60.7027C63.6087 72 66 69.6716 66 66.8421ZM16.2725 4.45104C13.0491 4.45104 9.60477 5.40059 9.60477 8.06528C9.60477 11.8546 16.4597 18.7596 32.822 19.4866C31.4406 14.5549 27.2656 4.45104 16.2725 4.45104Z" fill="#FDD6BA"/>
</svg>

<svg xmlns="http://www.w3.org/2000/svg" width="72" height="72" fill="none" xmlns:v="https://vecta.io/nano"><path fill-rule="evenodd" d="M36 23.981a2.38 2.38 0 0 0 .302.019L38 23.98V34.5 39h27.956.755C69.612 39 72 36.63 72 33.75v-7.5c0-2.88-2.388-5.25-5.289-5.25H54.58C63.049 17.708 67 12.327 67 8.067 67 4.347 64.05.003 55.731 0 44.993 0 38.912 7.615 36 14.59 33.087 7.614 27.007 0 16.273 0 7.953 0 5 4.344 5 8.065 5 12.325 8.952 17.708 17.421 21H5.289C2.388 21 0 23.37 0 26.25v7.5C0 36.63 2.388 39 5.289 39h.756H34v-4.5-10.52l1.698.02a2.38 2.38 0 0 0 .302-.019zm3.175-4.497c1.384-4.928 5.56-15.031 16.556-15.031 3.223 0 6.665.946 6.665 3.611 0 1.789-1.556 4.593-5.925 7.1-3.15 1.807-8.62 3.928-17.295 4.32zM34 44H6v22.842C6 69.672 8.391 72 11.297 72H34V44zm32 22.842V44H38v28h22.703C63.609 72 66 69.672 66 66.842zM16.273 4.451c-3.223 0-6.668.95-6.668 3.614 0 3.789 6.855 10.694 23.217 11.421-1.381-4.932-5.556-15.036-16.55-15.036z" fill="#fdd6ba"/></svg>
